X:1
T:Dances of the Dolls
T:Dances of the Dolls
T:Polka
T:Dmitri Shostakovich
C:Dmitri Shostakovich
%%score { 1 | 2 }
L:1/8
Q:1/4=135
M:2/4
K:C
V:1 treble nm="Piano" snm="Pno."
V:2 bass 
V:1
!p!"^Allegretto, ma non troppo""_sempre staccatissimo"{/^d'} e'e z2 |{/^d'} e'e z2 | %2
!<(! !3!e !2!e2 !3!f!<)! |!mp! !4!gf !2!e!5!a | dc Be |!>(! !3!B!1!E !3!B!1!E!>)! |!p! F e2 E | %7
 G e2 E |"^ritard."[Q:1/4=120]!<(! !3!FE[Q:1/4=110] !4!GE |[Q:1/4=90] !3!FE[Q:1/4=60] GE!<)! | %10
"^a tempo"[Q:1/4=135]!mp! !2!A!1!E !2!A!1!!4!c | !2!!1!e2{/^g} a2 | f2{/^g} a2 | e2 z2 | %14
 !3!_b!1!f !5!c'!4!b | !3!a!1!e !5!_b!4!a | g2 f2 | !1!e2 z2 | AE Ac | e2{/^g} a2 | f2{/a} _b2 | %21
 g2{/=b} c'2 | !5!d'!4!b !1!d!2!B | !5!_d'!4!_b _d_B | c'a cA | BG E2 | %26
!pp!"_poco a poco cresc.""_cresc." !2!!4![ce]!1!!5![Af] [ce][Af] | !2!!3![de]!1!!5![^Gf] [de][Gf] | %28
 !2!!3![ce]!1!!5![Ag] [ce][Ag] | [ce][Ba] [ce][Ba] | [ce][Ba] [ce][Ba] | [eg][dc'] [eg][dc'] | %32
 [fa][cc'] [fa][cc'] | [f^g][cc'] [f=g]!mp![dd'] |!p!"_cresc." (!3!!5![eg]!1!!3![ce]) .[ce].[eg] | %35
 ([eg][ce]) .[ce].[eg] | (!2!!5![ea]!1![cg]) .[cg].[ea] | ([ea][cg]) .[cg].[ea] | %38
!mp! ([fb][da]) .[da].[fb] | ([fb][da]) .[da].[fb] | ([gc'][eb]) .[eb].[gc'] | %41
 ([gc'][eb]) .[eb].[gc'] | ([_a_d'][fc']) .[fc'].[ad'] | ([_a_d'][fc']) .[fc'].[ad'] | %44
!f! [^fd']=a [fd']a | [^Fd]A [Fd]A | DA, DA, |!>(! D z z2!>)! || %48
[K:D]!p!"^più mosso""_scherzando"[Q:1/4=175] z [EG^A]z[EGB] | z [CE]z[EG=A] | z [DF^G]z[DFA] | %51
 z [FAd]z[DFB] | z [EGd]z[EG] | z [EGc]z[EG] | z [DFB]z[DFA] | z [DF]z[DFA] | [E^GA][EGA] z [EGB] | %57
 [CE][CE] z [E=GA] | [DF^G][DFG] z [DFA] | [FAd][FAd] z .[_E=F=c] | [D=F_B][DFB] z [DF] | %61
 [D^F][DF] z [DE^G] | [E=GB][EGB] z [EGA] | [EGA]2 !1!E/!2!F/!3!G/!4!A/ | !1!^A[e^a] B[eb] | %65
 E[ce] =A[ca] | ^G[d^g] A[da] | d[fd'] B[fb] | d[gd'] G[eg] | [Bc][gc'] G[cg] | B[db] A[da] | %71
 F[df] A[da] | [eg^a][ega] [egb][egb] | [ce][ce] [e=ga][ega] | [df^g][dfg] [dfa][dfa] | %75
 [dfd'][dfd'] z [=cdf] | [_B_ea][Bea] z [Beg] | [G^c^f][Gcf] z [Gc=e] | [FAd][FAd] z [FAd] | %79
 [Fd]A [Fd]A | [Af]d [Af] z |"^ritard."[Q:1/4=160]!>(! z4!>)![Q:1/4=150][Q:1/4=130][Q:1/4=100] | %82
!p![Q:1/4=60]!<(! [^Gde]2 [=c=fa]2-!<)! |!>(! [cfa]2 z2!>)! || %84
[K:C]"^Tempo I"[Q:1/4=135]!p! !2!A!1!E !2!A!1!!4!c | e2{/^g} a2 | f2{/^g} a2 | e2 z2 | %88
 !3!_b!1!f !5!c'!4!b | !3!a!1!e !5!_b!4!a | g2 f2 | !1!e2 z2 | AE Ac | e2{/^g} a2 | f2{/a} _b2 | %95
 g2{/=b} c'2 | !5!d'!4!b !1!d!2!B | !5!_d'!4!_b _d_B | c'a cA | BG E2 |!pp! [^Gde]2 z2 | %101
 [cea]2 z2 |] %102
V:2
 z2 EE, | z2 EE, | E E2 F | GF EA | DC B,E | B,zB, z | z E,E z | z E,E z | z E,zE, | z E,zE, | %10
 A,,2 [E,A,C]2 | A,,2 [E,A,C]2 | A,,2 [F,A,D]2 | A,,2 [E,A,C]2 | A,,2 [F,_B,D]2 | A,,2 [E,A,C]2 | %16
 _B,,2 [F,_B,D]2 | z =B,, E,,E, | A,,2 [E,A,C]2 | A,,2 [E,A,C]2 | ^G,,2 [F,_B,D]2 | =G,,2 [G,CE]2 | %22
 B,2 B,,2 | C,2 _D,2 | =D,2 ^D,2 | B,,2 E,E,, | A,,2 [E,A,C]2 | E,,2 [E,B,D]2 | A,,2 [E,A,C]2 | %29
 B,,2 [E,A,C]2 | C,2 D,2 | E,2 D,E, | F,2 E,F, | =G,2 G,,2 | C,2 [G,CE]2 | C,2 [G,CE]2 | %36
 A,,2 [G,CE]2 | A,,2 [G,CE]2 | D,2 [A,DF]2 | D,2 [A,DF]2 | E,2 [G,CE]2 | E,2 [G,CE]2 | %42
 F,2 [_A,_DF]2 | F,2 [_A,_DF]2 | [=A,=D^F]2 [A,DF]2 | [D,A,]2 [D,A,]2 | D,A,, D,A,, | %47
 D,^C, D,^D, ||[K:D] E,=A, A,,A, | E,A, A,,A, | D,A, A,,A, | D,A, A,,A, | E,A, A,,A, | E,A, A,,A, | %54
 D,A, A,,A, | D,A, A,,A, | E,A, A,,A, | E,A, A,,A, | D,A, A,,A, | D,A, =F,A, | _B,,_B, =F,B, | %61
 =B,,=B, E,B, | A,,A, E,A, | A,,A, z2 | E,[G,A,] A,,[G,A,] | E,[G,A,] A,,[G,A,] | %66
 D,[F,A,] A,,[F,A,] | D,[F,A,] A,,[F,A,] | E,[G,B,] A,,[G,B,] | E,[G,A,] A,,[G,A,] | %70
 D,[F,A,] A,,[F,A,] | D,[F,A,] A,,[F,A,] | E,[G,A,] A,,[G,A,] | E,[G,A,] A,,[G,A,] | %74
 D,[F,A,] A,,[F,A,] | D,[F,A,] D,[F,A,] | _E,[G,_B,] E,[G,B,] | A,,[G,A,] A,,[G,A,] | D,A,DA, | %79
 D,4- | (D,2 D,)A,, | D,^C, D,^D, | E,2 =F,2- | F,2 E,=C, ||[K:C] A,,2 [E,A,C]2 | A,,2 [E,A,C]2 | %86
 A,,2 [F,A,D]2 | A,,2 [E,A,C]2 | A,,2 [F,_B,D]2 | A,,2 [E,A,C]2 | _B,,2 [F,_B,D]2 | z =B,, E,,E, | %92
 A,,2 [E,A,C]2 | A,,2 [E,A,C]2 | ^G,,2 [F,_B,D]2 | =G,,2 [G,CE]2 | B,2 B,,2 | C,2 _D,2 | %98
 =D,2 ^D,2 | B,,2 E,2 | E,zE,, z | A,,2 z2 |] %102

